/* XPM */
static const char *button[] = {
"26 26 2 1",
". c #252525",
"x c #ededed",
"..........................",
"..........................",
"..........................",
"..........................",
"..........................",
"..........................",
"..........................",
"..........................",
"........x........x........",
".........x......x.........",
"..........x....x..........",
"...........x..x...........",
"............xx............",
"............xx............",
"...........x..x...........",
"..........x....x..........",
".........x......x.........",
"........x........x........",
"..........................",
"..........................",
"..........................",
"..........................",
"..........................",
"..........................",
"..........................",
".........................."
};
