/* XPM */
static const char *button[] = {
"26 26 2 1",
". c #1c1c1c",
"x c #a1a1a1",
"..........................",
"..........................",
"..........................",
"..........................",
"..........................",
"..........................",
"..........................",
"..........................",
"........xxxxxxxxxx........",
"........x........x........",
"........x........x........",
"........x........x........",
"........x........x........",
"........x........x........",
"........x........x........",
"........x........x........",
"........x........x........",
"........xxxxxxxxxx........",
"..........................",
"..........................",
"..........................",
"..........................",
"..........................",
"..........................",
"..........................",
".........................."
};
