/* XPM */
static const char *button[] = {
"26 26 2 1",
". c #284769",
"x c #ffffff",
"..........................",
"..........................",
"..........................",
"..........................",
"..........................",
"..........................",
"..........................",
"..........................",
"........xxxxxxxxxx........",
"........x........x........",
"........x........x........",
"........x........x........",
"........x........x........",
"........x........x........",
"........x........x........",
"........x........x........",
"........x........x........",
"........xxxxxxxxxx........",
"..........................",
"..........................",
"..........................",
"..........................",
"..........................",
"..........................",
"..........................",
".........................."
};
