/* XPM */
static const char *start_icon[] = {
"24 24 71 3",
"000 c None",
"001 c #b4d6ff",
"002 c #aed3fd",
"003 c #add3fb",
"004 c #b2d5fd",
"005 c #b4d6fe",
"006 c #6daaee",
"007 c #4390e5",
"008 c #3e8de4",
"009 c #6eacef",
"00a c #b3d6ff",
"00b c #9cc7f8",
"00c c #1475da",
"00d c #0068d6",
"00e c #1575db",
"00f c #9dc7f9",
"010 c #b3d4fd",
"011 c #b4d5fe",
"012 c #6dabee",
"013 c #0b6fd8",
"014 c #65a4e6",
"015 c #77aee9",
"016 c #6facef",
"017 c #b4d7fd",
"018 c #046ad7",
"019 c #cbdff5",
"01a c #ffffff",
"01b c #cadff5",
"01c c #4391e5",
"01d c #afd2fd",
"01e c #afd3fd",
"01f c #3a8be3",
"020 c #3286de",
"021 c #6a7684",
"022 c #10243a",
"023 c #6b7785",
"024 c #3185de",
"025 c #408ee0",
"026 c #4c5b6b",
"027 c #172b40",
"028 c #75818d",
"029 c #1b2e43",
"02a c #334457",
"02b c #fbfcfc",
"02c c #c7cbd1",
"02d c #5e6b7a",
"02e c #fafbfb",
"02f c #c9cdd2",
"030 c #1c2f44",
"031 c #969fa8",
"032 c #76828e",
"033 c #c8ccd1",
"034 c #a2aab3",
"035 c #4a596a",
"036 c #8f99a3",
"037 c #6c7886",
"038 c #c9def5",
"039 c #036ad6",
"03a c #0a6ed8",
"03b c #64a3e6",
"03c c #88b9ec",
"03d c #ddebfa",
"03e c #bfd9f5",
"03f c #9cc4ef",
"040 c #b5d6ff",
"041 c #3e8de0",
"042 c #70acef",
"043 c #1676db",
"044 c #b5d7fe",
"045 c #9dc8f9",
"046 c #b3d5fd",
"000000000000001002003003003003003003003003003003003003002001000000000000",
"00000000400500600700800800800800800800800800800800800800700900500a000000",
"00000400b00c00d00d00d00d00d00d00d00d00d00d00d00d00d00d00d00d00e00f010000",
"00001100c00d00d00d00d00d00d00d00d00d00d00d00d00d00d00d00d00d00d00e005000",
"00101200d00d01301401501501501501501501501501501501501501401300d00d016017",
"00200700d01801901a01a01a01a01a01a01a01a01a01a01a01a01a01a01b01800d01c01d",
"01e01f00d02001a02102202202202202202202202202202202202202301a02400d01f01e",
"01e01f00d02501a02602702802902202202202202202202202202202601a02500d01f01e",
"01e01f00d02501a02602a02b02c02902202202202202202202202202601a02500d01f01e",
"01e01f00d02501a02602202d02e02f03002202202202202202202202601a02500d01f01e",
"01e01f00d02501a02602202203101a03202202202202202202202202601a02500d01f01e",
"01e01f00d02501a02602202d02e03303002202202202202202202202601a02500d01f01e",
"01e01f00d02501a02602a02b02c02902203401a01a01a03402202202601a02500d01f01e",
"01e01f00d02501a02602702802902202203503603603603502202202601a02500d01f01e",
"01e01f00d02001a02302202202202202202202202202202202202203701a02400d01f01e",
"01e01f00d01801b01a01a01a01a01a01a01a01a01a01a01a01a01a01a03803900d01f01e",
"01e01f00d00d03a03b03c03c03c03c03c03d03d03c03c03c03c03c03b01300d00d01f01e",
"01e01f00d00d00d00d00d00d00d00d00d03e03e00d00d00d00d00d00d00d00d00d01f01e",
"00200700d00d00d00d00d00d03f01a01a01a01a01a01a03f00d00d00d00d00d00d01c01d",
"04001200d00d00d00d00d00d04103c03c03c03c03c03c04100d00d00d00d00d00d042017",
"00000500e00d00d00d00d00d00d00d00d00d00d00d00d00d00d00d00d00d00d043044000",
"00000a00f00e00d00d00d00d00d00d00d00d00d00d00d00d00d00d00d00d043045046000",
"00000001000501601c00800800800800800800800800800800800801c042044046000000",
"000000000000017002003003003003003003003003003003003003002017000000000000"
};
